X:8689
T:Kitty's Rambles
M:6/8
L:1/8
R:jig
D:Mary Bergin: Feado/ga Sta/in 2
Z:Transcribed as played 1st time around. J denotes a slide up to the
Z:note.
K:Dmix
G|FDD Jc2A|d(3B^cd ezg|(3gfed cAG|(3FGAF {A}GFE|
{A}FDD Jc2A|d(3B^cd ezg|(3gfed {^c}BAG|Ad^c d{^c}AG||
FDD Jc2A|d(3B^cd ezg|(3gfed {a}ed^c|ABG EFG|
FDD EFG|Ad{a}d efg|(3gfed {^c}BAG|FAd {a}d2z||
|:dfa dza|daf {^c'}afd|ecg ecg|ecg {a}gfe|
[1 ~f3 gzg|~a3 efg|(3gfed {^c}BAG|Ad^c d2z:|
[2 fdf ~g3|aza efg|(3gfed {^c}BAG|Ad^c d(3efg||
afd {a}d^cd|Adf {^c'}agf|{a}gec cBc|Gce {a}gfe|
fdf g2z|~a3 efg|(3gfed {^c}BAG|Ad^c d(3efg||
azd {a}d^cd|Adf {^c'}agf|{a}gec cBc|Gce {a}gfe|
fdf ~g3|aza efg|(3gfed {^c}BAG|Ad^c d{c}AG||
